X:1
T:Wedding March
T:Wedding March
%%score 1 2 { ( 3 6 ) | ( 4 7 ) | 5 }
L:1/8
Q:1/4=120
M:4/4
K:C
V:1 treble transpose=-2 nm="1e B♭" snm="1e B♭"
V:2 treble transpose=-2 nm="2e B♭" snm="2e B♭"
V:3 treble nm="Org." snm="Org."
V:6 treble 
V:4 bass 
V:7 bass 
V:5 bass 
V:1
[K:D]!f! (3ddd | d6 (3ddd | d6 (3ddd | [df]2 (3[df][df][df] [df]2 (3[df][df][df] | %4
 [dfa]2!<(! (3[dfa][dfa][dfa] [dfa]2 [dfa]2!<)! |:S!ff! d4 c3 ^G | B2 A2 G2 E2 | TD4 E2 A,>E | %8
 F2 DF ADFA | d4 c3 ^G | B2 A2 G2 E2 | TD4 F2 E>F |1 E4 D2 z2 | z2 (3DFA [FAd]2 z2 | %14
 z2 (3FAd [Adf]2 z2 | z2 (3FAd [Adf]2 (3Adf | [dfa]2 (3Adf [dfa]2!<(! (3dfa!<)! :|2 E4 D2 z2 |: %18
 d4 d3 d | f2 e2 c2 A2 | A3 d d3 f | f2 e2 c2 A2 | A3 f f3 a | a4 g2 f2 | e2 ^d>f e2 B>=d | %25
 !breath!c2!<(! A2 B2 c2!<)! |!ff! d4 c3 ^G | B2 A2 G2 E2 | TD4 E2 A,>E | F2 DF ADFA | d4 c3 ^G | %31
 B2 A2 G2 E2 | TD4 F2 E>F | E4 D2 z2 :| %34
V:2
[K:D] z2 | z8 | z8 | z8 | z8 |:!ff! ^G4 G3 G | ^G2 F2 E2 E2 | TD4 E2 A,>E | D2 z z z DFA | %9
 ^G4 G3 ^E | ^G2 F2 E2 E2 | TD4 F2 E>F |1 E4 D2!f! (3DDD | D6 (3DDD | D6 (3DDD | D8- | D8 :|2 %17
 E4 D2 z2 |: z8 | z8 | z8 | z8 | z8 | z8 | z8 | !breath!z2!<(! A2 B2 c2!<)! |!ff! ^G4 G3 ^E | %27
 ^G2 F2 E2 E2 | TD4 E2 A,>E | D2 z z z DFA | ^G4 G3 ^E | ^G2 F2 E2 B,2 | TD4 F2 E>F | E4 D2 z2 :| %34
V:3
!f! (3ccc | c6 (3ccc | c6 (3ccc | [ce]2 (3[ce][ce][ce] [ce]2 (3[ce][ce][ce] | %4
 [ceg]2!<(! (3[ceg][ceg][ceg] [ceg]2 [ceg]2!<)! |:!ff! [ce^fc']4 [B^dfb]3 [Bdf] | %6
 [^d^fa]2 [eg]2 [=d=f]2 [Ad]2 | Tc4 d2 G>d | [Gce]2 CE Gceg | [ce^fc']4 [B^dfb]3 [Bdf] | %10
 [^d^fa]2 [eg]2 [=d=f]2 [Ad]2 | Tc4 e2 [GBd]>e |1 [GBd]4 [EGc]2 z2 | z2 (3CEG [EGc]2 z2 | %14
 z2 (3EGc [Gce]2 z2 | z2 (3EGc [Gce]2 (3Gce | [ceg]2 (3Gce [ceg]2!<(! (3ceg!<)! :|2 %17
 [GBd]4 [EGc]2 z2 |: [EGc]4 [EGc]3 [EGc] | [Gce]2 [FBd]2 [DFB]2 [B,FG]2 | %20
 [CEG]3 [EGc] [EGc]3 [Gce] | [Gce]2 [FBd]2 [DFB]2 [B,FG]2 | G3 [Gce] [Gce]3 [ceg] | %23
 [Aeg]4 [Adf]2 [Ace]2 | d2 ^c>e d2 A>=c | !breath![GB]2!<(! [Gg]2 [Aa]2 [Bb]2!<)! | %26
!ff! [ce^fc']4 [B^dfb]3 [Bdf] | [^d^fa]2 [eg]2 [=d=f]2 [Ad]2 | Tc4 d2 G>d | [Gce]2 CE Gceg | %30
 [ce^fc']4 [B^dfb]3 [Bdf] | [B^d^fa]2 [_Beg]2 [A=d=f]2 [FAd]2 | Tc4 e2 [GBd]>e | %33
 [GBd]4 [EGc]2 z2 :| %34
V:4
 z2 | z8 | z8 | z8 | z8 |: [A,CE^F]4 [B,^DF]3 [B,DF] | [^D^F]2 [EG]2 [=D=F]4 | G,8- | %8
 [G,CE]2 z2 z4 | [A,CE^F]4 [B,^DF]3 [B,DF] | [^D^F]2 [EG]2 [=D=F]4 | G,8 |1 %12
 [G,-B,F]4 [G,CE]2!f! (3CCC | C6 (3CCC | C6 (3CCC | C8- | C8 :|2 [G,-B,F]4 [G,CE]2 z2 |: C8 | G,8 | %20
 C8 | G,8 | C8 | [F,A,C]8 | C2 ^C2 D4 | !breath![G,B,D]2 z2 z4 | [A,CE^F]4 [B,^DF]3 [B,DF] | %27
 [^D^F]2 [EG]2 [=D=F]4 | G,8- | [G,CE]2 z2 z4 | [A,CE^F]4 [B,^DF]3 [B,DF] | [^D^F]2 [EG]2 [=D=F]4 | %32
 G,8 | [G,-B,F]4 [G,CE]2 z2 :| %34
V:5
 z2 | z8 | z8 | z8 | z8 |: A,,4 B,,4 | E,,4 F,,4 | G,,8 | C,,2 z2 z4 | A,,4 B,,4 | E,,4 F,,4 | %11
 G,,8 |1 G,,4 C,,2 z2 | z8 | z8 | z8 | z8 :|2 G,,4 C,,2 z2 |: C,,8 | G,,8 | C,,8 | G,,8 | C,,8 | %23
 F,,8 | F,,4 ^F,,4 | !breath!G,,2 z2 z4 | A,,4 B,,4 | E,,4 F,,4 | G,,8 | C,,2 z2 z4 | %30
 A,,2 ^F,,2 B,,2 ^D,,2 | E,,2 ^C,,2 D,,2 F,,2 | G,,8 | G,,4 C,,2 z2 :| %34
V:6
 x2 | x8 | x8 | x8 | x8 |: x8 | B4 A2 F2 | x8 | x8 | x8 | B4 A2 F2 | x8 |1 x8 | x8 | x8 | x8 | %16
 x8 :|2 x8 |: x8 | x8 | x8 | x8 | x8 | x8 | [FA]2 [FA]2 [^FA]2 F2 | x8 | x8 | B4 A2 F2 | x8 | x8 | %30
 x8 | x8 | x8 | x8 :| %34
V:7
 x2 | x8 | x8 | x8 | x8 |: x8 | B,4 A,4 | [CE]4 [B,F]4 | x8 | x8 | B,4 A,4 | [CE]6 [B,F]2 |1 x8 | %13
 x8 | x8 | x8 | x8 :|2 x8 |: x8 | x8 | x8 | x8 | x8 | x8 | [F,A,]4 [^F,A,]4 | x8 | x8 | B,4 A,4 | %28
 [CE]4 [B,F]4 | x8 | x8 | B,2 _B,2 A,4 | [CE]6 [B,F]2 | x8 :| %34

